!!!COM: Palestrina, Giovanni Perluigi da
!!!OPR: Missa Ecce sacerdos magnus
!!!OTL: Agnus I
**kern	**kern	**kern	**kern
*Ibass	*Itenor	*Icalto	*Icant
!Bassus	!Tenor	!Altus	!Cantus
*clefF4	*clefGv2	*clefG2	*clefG2
*k[]	*k[]	*k[]	*k[]
*G:mix	*G:mix	*G:mix	*G:mix
*M4/2	*M4/2	*M4/2	*M4/2
=1	=1	=1	=1
0r	0d	0r	0r
=2	=2	=2	=2
0G	1d	0r	0r
.	1B	.	.
=3	=3	=3	=3
1G	1d	0g	0r
1E	1e	.	.
=4	=4	=4	=4
1G	2d	1g	0r
.	1e	.	.
1A	.	1e	.
.	4d	.	.
.	4c	.	.
=5	=5	=5	=5
2.G	4B	1g	[0dd
.	4G	.	.
.	1g	.	.
8F	.	.	.
8E	.	.	.
2D	.	1a	.
2r	2f#	.	.
=6	=6	=6	=6
2r	1g	2.g	0dd]
2G	.	.	.
.	.	8f	.
.	.	8e	.
2.B	2r	1d	.
.	2G	.	.
4c	.	.	.
=7	=7	=7	=7
1d	2.B	2r	0dd
.	.	2G	.
.	4c	.	.
2G	1d	2.B	.
2G	.	.	.
.	.	4c	.
=8	=8	=8	=8
2.B	1G	1d	0b
4c	.	.	.
1d	2r	1G	.
.	2G	.	.
=9	=9	=9	=9
1G	2.B	2r	[0dd
.	.	2d	.
.	4c	.	.
1r	2d	2f	.
.	4G	2g	.
.	4A	.	.
=10	=10	=10	=10
1r	4B	4d	1dd_
.	4c	4e	.
.	4d	4f	.
.	4e	4g	.
1D	4f	2a	1dd_
.	4g	.	.
.	[2a	4f	.
.	.	4g	.
=11	=11	=11	=11
2F	2a]	4a	0dd]
.	.	4f	.
2G	1g	2b-	.
1D	.	1a	.
.	2f	.	.
=12	=12	=12	=12
2r	2.e	1g	0ee
2C	.	.	.
.	4d	.	.
2.E	2c	2r	.
.	2B	2G	.
4F	.	.	.
=13	=13	=13	=13
[0G	2r	2.B	0dd
.	2G	.	.
.	.	4c	.
.	2.B	2d	.
.	.	4G	.
.	4c	4A	.
=14	=14	=14	=14
1G]	2d	4B	[0dd
.	.	4c	.
.	2G	4d	.
.	.	4e	.
1D	1A	4f	.
.	.	4g	.
.	.	[2a	.
=15	=15	=15	=15
1r	2.B	2a]	0dd]
.	.	1g	.
.	8A	.	.
.	8G	.	.
1D	1A	.	.
.	.	2f#	.
=16	=16	=16	=16
2.E	2.G	0g	0r
4F	4A	.	.
2G	2B	.	.
4C	[2c	.	.
4D	.	.	.
=17	=17	=17	=17
4E	2c]	1g	0r
4F	.	.	.
4G	2B	.	.
4A	.	.	.
4B	[1G	2.g	.
4c	.	.	.
[2d	.	.	.
.	.	4f	.
=18	=18	=18	=18
2d]	1G]	2e	0r
1c	.	4d	.
.	.	4c	.
.	1G	1d	.
4B	.	.	.
4A	.	.	.
=19	=19	=19	=19
2.B	2r	1G	0dd
.	2d	.	.
4c	.	.	.
[1d	2.f	2r	.
.	.	2d	.
.	4g	.	.
=20	=20	=20	=20
2d]	2a	2f	0dd
2G	2.g	2g	.
1d	.	1a	.
.	4f	.	.
.	4f	.	.
.	8e	.	.
.	8d	.	.
=21	=21	=21	=21
1r	1e	0g	0b
1G	1d	.	.
=22	=22	=22	=22
2.A	1c	2.e	[0cc
4B	.	4d	.
2c	1r	2e	.
4F	.	[2f	.
4G	.	.	.
=23	=23	=23	=23
4A	0r	2f]	1cc]
4B	.	.	.
4c	.	2e	.
4A	.	.	.
4B	.	2.d	[1dd
4c	.	.	.
[2d	.	.	.
.	.	4c	.
=24	=24	=24	=24
2d]	1r	2B	0dd]
1c	.	2A	.
.	2r	1G	.
2B	2G	.	.
=25	=25	=25	=25
1c	2.A	2r	[0cc
.	.	2c	.
.	4B	.	.
1r	2c	2e	.
.	4F	2f	.
.	4G	.	.
=26	=26	=26	=26
1r	4A	2e	1cc]
.	4B	.	.
.	4c	4A	.
.	4d	4B	.
2r	4e	4c	[1g
.	4f	4d	.
2C	[2g	[2e	.
=27	=27	=27	=27
2.E	4g]	4e]	0g]
.	4f	4d	.
.	2e	2c	.
4F	.	.	.
2G	2d	2B	.
4C	[2c	[2e	.
4D	.	.	.
=28	=28	=28	=28
4E	2c]	2e]	0g
4F	.	.	.
4G	4B	4d	.
4A	4A	4c	.
4B	1G	2d	.
4c	.	.	.
[2d	.	2B	.
=29	=29	=29	=29
2d]	1A	1c	0r
1c	.	.	.
.	1G	1d	.
2B	.	.	.
=30	=30	=30	=30
2.A	2.c	1e	1.cc
4G	4B	.	.
2F	2A	2f	.
2E	2G	[2g	2cc
=31	=31	=31	=31
1F	1A	4g]	0cc
.	.	4f	.
.	.	2f	.
1C	2G	1e	.
.	[2g	.	.
=32	=32	=32	=32
0D	2g]	1d	0a
.	2f	.	.
.	2d	2r	.
.	2f	[2a	.
=33	=33	=33	=33
1C	2.e	2a]	[0cc
.	.	2g	.
.	4d	.	.
1r	2c	2e	.
.	2B	[2g	.
=34	=34	=34	=34
1r	1A	4g]	1cc]
.	.	8f	.
.	.	8e	.
.	.	2f#	.
2r	1G	1g	1b
[2d	.	.	.
=35	=35	=35	=35
2d]	1.A	1e	0r
2c	.	.	.
2A	.	1a	.
2c	2A	.	.
=36	=36	=36	=36
2.B	2.d	2.g	0r
4A	4c	4f	.
2G	2B	2e	.
2F	2A	[2d	.
=37	=37	=37	=37
1E	2G	2d]	1r
.	1g	2c#	.
[1D	.	1d	[1a
.	2f	.	.
=38	=38	=38	=38
1D]	2d	1r	1a]
.	2f	.	.
1r	1e	2r	1g
.	.	[2g	.
=39	=39	=39	=39
1r	0d	2g]	[0a
.	.	2f	.
2r	.	2d	.
[2d	.	2f	.
=40	=40	=40	=40
2d]	2r	2.e	1a]
2c	1a	.	.
.	.	4d	.
2A	.	4e	[1cc
.	.	4f	.
[2c	2g	[2e	.
=41	=41	=41	=41
2c]	2e	2e]	0cc]
2B	2.g	2d	.
1A	.	1c	.
.	8f	.	.
.	8e	.	.
.	2f#	.	.
=42	=42	=42	=42
0G	1g	1d	0b
.	[1d	2r	.
.	.	[2g	.
=43	=43	=43	=43
1.D	1d]	2g]	[0a
.	.	2f	.
.	2r	2d	.
2D	[2d	2f	.
=44	=44	=44	=44
1A	2d]	1e	0a]
.	2c	.	.
1F	2A	1f	.
.	[2c	.	.
=45	=45	=45	=45
0G	2c]	0d	[0g
.	4B	.	.
.	4A	.	.
.	1B	.	.
=46	=46	=46	=46
0C	0c	0e	1g_
.	.	.	1g_
=47	=47	=47	=47
[0G	[0B	[0d	0g]
=48	=48	=48	=48
0G]	0B]	0d]	0g
==	==	==	==
*-	*-	*-	*-
!!!CDT: 1525/^1526/-1594/2/2
!!!OCY: Italia
!!!AGN: Mass (Tenor)
!!!AST: renaissance, vocal
!!!ASW: Antiphon
!!!PWK: Masses, Book I
!!!RNB: Cadence finals: D,C
!!!YOR: Le Opere Complete, v. 1, p. 1
!!!YOO: Rome, Italy: Fratelli Scalera
!!!END: 1992//
!!!EED: John Miller
!!!YEC: Copyright 2000, John Miller
!!!YEN: United States of America
!!!YEM: Rights to all derivative electronic formats reserved.
!!!YEM: Refer to licensing agreement for further details.
!!!YEM: This file must be accompanied by the licensing agreement.
!!!YEM: A copy of the licensing agreement may be found at http://www.music-cog.ohio-state.edu/HumdrumDatabases/Palestrina/license.txt
!!!EMD: converted to Humdrum by Bret Aarden
